X:226
T:McDonagh's
Z: id:dc-reel-207
M:C
L:1/8
K:D Major
A|defd A3d|Bdef gfef|defd A3B|cAGE EDD:|!
B|Adfd adfd|Acec gcec|Adfd adfd|efge fddB|!
Adfd adfd|cdef g2fe|defg a3f|gfeg fdd|]!

